X: 1
T:Aandowin at da Bow
R:Reel
O:Shetland
M:4/4
K:G
A|\
BGAG E2D2|BGAG BGAd|BGAG E2D2|GABA G3:|\
g|\
egdB AGE2|egdg egdg|egdB AGE2|g2gg afg2|\
egdg egdg|egdB AGED|GABG E2D2|GABA G3|]
